!!!COM: Bach, Johann Sebastian
!!!CDT: 1685/3//-1750/7/28/
!!!OTL@@DE: Aus meines Herzens Grunde
!!!OTL@EN:  From the depths of my heart
!!!AGN: 4-Part Chorale
!!!SCT: BH 001
!!!SCT: BWV 269
**harm	**root	**kern	**kern	**kern	**kern
!	!	!bass	!tenor	!alto	!sprno
*	*Iorgan	*Iorgan	*Iorgan	*Iorgan	*Iorgan
*	*	*clefF4	*clefF4	*clefG2	*clefG2
*k[b-e-a-]	*k[b-e-a-]	*k[b-e-a-]	*k[b-e-a-]	*k[b-e-a-]	*k[b-e-a-]
*E-:	*E-:	*E-:	*E-:	*E-:	*E-:
*M3/4	*M3/4	*M3/4	*M3/4	*M3/4	*M3/4
*MM60	*MM60	*MM60	*MM60	*MM60	*MM60
*>[A,A,B]	*>[A,A,B]	*>[A,A,B]	*>[A,A,B]	*>[A,A,B]	*>[A,A,B]
*>A	*>A	*>A	*>A	*>A	*>A
I	4GG	4EE-	4G	4B-	4e-
=1	=1	=1	=1	=1	=1
I	4GG	4E-	4G	4B-	2e-
IVb[vi]	4EE	4C	8A-	4c	.
.	.	.	8G	.	.
Vb	4DD	4D	4F	4B-	4b-
=2	=2	=2	=2	=2	=2
I	4GG	4E-	4E-	2B-	4.g
V	4DD	4BB-	4D	.	.
.	.	.	.	.	8f
vi	4EE	4C	4E-	4G	4e-
=3	=3	=3	=3	=3	=3
IV	4CC	4AA-	8A-	8c	4.e-
.	.	.	8G	8B-	.
IV7d	8CC	8GG	4A-	8c	.
viiob	8FF#	8FF	.	8d	8f
I	4GG	4EE-	4B-	4e-	4g
=4	=4	=4	=4	=4	=4
V;	2DD;	2BB-;	2B-;	2d;	2f;
I	4GG	4EE-	4B-	4e-	4g
=5	=5	=5	=5	=5	=5
Vb	4DD	4DD	4F	4B-	2b-
vi7b	4EE	4EE-	4G	4c	.
viiob	4FF#	4FF	4A-	4d	4a-
=6	=6	=6	=6	=6	=6
Ib	4GG	4GG	4B-	2e-	4g
ii7b	4AA	4AA-	4c	.	2f
V7	4DD	4BB-	8B-	4d	.
.	.	.	8A-	.	.
=7	=7	=7	=7	=7	=7
I;	2GG;	2EE-;	2G;	2B-;	2e-;
=:|!	=:|!	=:|!	=:|!	=:|!	=:|!
*>B	*>B	*>B	*>B	*>B	*>B
I	4GG	4EE-	4B-	[4e-	4g
=8	=8	=8	=8	=8	=8
I	4GG	4EE-	4B-	8e-]	4g
.	.	.	.	8d	.
ii	4AA	4FF	4A-	8c	4a-
.	.	.	.	8d	.
Ib	4GG	4GG	8G	[4e-	4b-
.	.	.	8F	.	.
=9	=9	=9	=9	=9	=9
Ib	4.GG	4.GG	8G	8e-]	4.b-
.	.	.	8A-	8f	.
.	.	.	4B-	8e-	.
V7c	8DD	8FF	.	8d	8a-
I	4GG	4EE-	4B-	4e-	4g
!!linebreak: 2
=10	=10	=10	=10	=10	=10
V;	2DD;	2BB-;	2B-;	2d;	2f;
vi	4EE	[4C	4G	4c	4e-
=11	=11	=11	=11	=11	=11
vi	4EE	4C]	4E-	4c	2g
iiib[Ic]	4BB	4BB-	4G	8d	.
.	.	.	.	8e-	.
iib	4AA	4AA-	4c	4f	4a-
=12	=12	=12	=12	=12	=12
Ib	2GG	4.GG	2B-	4f	2b-
.	.	.	.	4.e-	.
.	.	8AA-	.	.	.
V7	4DD	4BB-	4B-	.	4a-
.	.	.	.	8d	.
=13	=13	=13	=13	=13	=13
I	4GG	8EE-	2.B-	2e-	2.g
.	.	8FF	.	.	.
Ib	4GG	4GG	.	.	.
V7/IV	4GG	4EE-	.	4d-	.
=14	=14	=14	=14	=14	=14
IV;	2CC;	2AA-;	2A-;	2c;	2e-;
I	4GG	4EE-	4B-	4e-	4g
=15	=15	=15	=15	=15	=15
Vb	4DD	4DD	8B-	4.f	2b-
.	.	.	8A-	.	.
I	4GG	4EE-	4G	.	.
.	.	.	.	8e-	.
viiob	4FF#	4FF	4A-	4d	4a-
=16	=16	=16	=16	=16	=16
I	2GG	4GG	2B-	2e-	2g
.	.	4EE-	.	.	.
V	4DD	4BB-	8B-	[4d	4f
.	.	.	8A-	.	.
=17	=17	=17	=17	=17	=17
vi	4EE	8C	4G	8d]	4.e-
.	.	8BB-	.	8c	.
IV	8CC	8AA-	4A-	8c	.
viio7d	8FF#	8GG	.	8d	8f
I	4GG	8FF	4B-	4e-	4g
.	.	8EE-	.	.	.
=18	=18	=18	=18	=18	=18
V;	2DD;	2BB-;	2B-;	2d;	2f;
I	4GG	[4E-	4B-	4e-	4g
=19	=19	=19	=19	=19	=19
Vb	2DD	4E-]	2B-	2f	2b-
.	.	4D	.	.	.
IVb	4CC	[4C	4c	8e-	4a-
.	.	.	.	8d	.
=20	=20	=20	=20	=20	=20
vi	4EE	8C]	2c	2e-	4g
.	.	8BB-	.	.	.
ii7b	4AA	4AA-	.	.	2f
V7	4DD	4BB-	8B-	4d	.
.	.	.	8A-	.	.
=21	=21	=21	=21	=21	=21
I;	2GG;	2EE-;	2G;	2B-;	2e-;
==	==	==	==	==	==
*-	*-	*-	*-	*-	*-
!!chor2scor: -l 2 -s 0.6 -o %b.pmx
!!!ONB1: Text by Georg Niege; 16th Century secular melody, first appears 
!!!ONB2: in sacred use in Neu Catechismus-Gesangbüchlein, Hamburg, 1598. 
!!!YEC: Copyright 2001 by Craig Stuart Sapp
!!!license: GNU General Public License (http://www.gnu.org/copyleft/gpl.html)
!!!SMA: 371 Bach Chorales, edited by Ludwig Erk, C.F. Peters
!!!PDT: 1850, 1865
!!!ONB: Harmony and Root analysis done manually by Craig Sapp
!! Beat 2 of measure 1 chord could also be IVb (with root on C)
